X: 29
T:Weeping Willow Tree, Headington
M:6/8
L:1/8
A:Headington
P:A2(AB)4
K:G
P:A
D|G2A B2c|d2d A2c|B2G GFG|B3 A2D|
G2A B2c|d2d A2c|B2G E2F|G3 G2 ||
P:B
G|A2A AGA|B3  G2G|A2A AGA|B3 G2D|
G2A B2c|d2d A2c|B2G E2F|G3-G2 ||
